X:1
T:Sonata in E minor
T:Sonata in E minor
T:Hob. XVI/34, Movement I
T:Joseph Haydn (1732-1809) 
C:Joseph Haydn (1732-1809)
%%score { ( 1 5 ) | ( 2 3 4 ) }
L:1/8
Q:1/4=187
M:6/8
K:G
V:1 treble nm="Grand Piano" snm="Pno."
V:5 treble 
V:2 bass 
V:3 bass 
V:4 bass 
V:1
"^Presto"!p! z2 z z ([B,G][A,^D] | [G,E]) z z z ([GB][FA] | [EG]) z z z (([Bg][Af] | %3
 [Ge]3-) [Ge])[Ac][FA] | [^DF]3- [DF]BA | ([FA]2 [EG] !wedge![^DF])(^AB) | %6
 ([F=A]2 [EG] !wedge![^DF])(^AB) | [F=A]2 PT[EG] [^DF] z !fermata!z | z2 z z ([B,G][A,^D] | %9
 [G,E]) z z z ([GB][FA] | [EG]) z z z!<(! ([^Ge][B=d] | [Ac]) z z z ([Ac][=Ge] | %12
 [Fd]) z z z ([FA][Ac]!<)! |!f! [GB]) z z z/ D/d/B/A/G/ | F z z z/ D/d/c/B/A/ | %15
!p! B z z z/ d/d'/b/a/g/ | (g2 !wedge!f) z/ d/d'/c'/b/a/ | (a2 !wedge!b) z/ d/d'/b/a/g/ | %18
 e'/e/c'/e'/b/e'/ a/b/c'/d'/e'/c'/ | d'/d/b/d'/a/d'/ g/a/b/c'/d'/b/ | %20
 c'/c/a/c'/g/c'/ f/c'/g/c'/a/c'/ | bMTc'd' aaa | bMTc'd' aaa | bMTc'd' aaa |!<(! ggg fff | %25
 ^ccc!<)!!f! d/A/B/c/d/e/ | f/d/e/f/g/a/ b/a/g/a/b/^c'/ | d'af dAF | D2 z z2 !fermata!z | %29
!p! z [Bd][Ac] [GB][db][Bg] | [Af][ac'][gb] [fa][c'e'][ac'] | b d'2- d'2 c'- | c'2 b abc' | %33
 g3- gaf | g z z z2 !fermata!z |!p! z [Bd][Ac] [GB][db][Bg] | [Af][ac'][gb] [fa][c'e'][ac'] | %37
 b d'2- d'2 c'- | c'2 b- b a2 |!<(! ggg ggg | g3- gaf!<)! |!f! g/d/B/d/c/d/ B/d/g/d/a/d/ | %42
 b/d/B/d/c/d/ B/d/g/d/a/d/ | b/d/B/d/c/d/ B/d/g/d/a/d/ | b[gb][bd'] [gb] z z :: %45
!p! z2 z z ([^G,E][B,D] | [A,C]) z z z ([Ec][CA] | [B,^G]) z z z ([Ge][Bd] | %48
 [Ac]) z z z ([ca][A^d] | [^Ge]) z z z2 !fermata!z |!f! z2 z z/ G/g/e/d/c/ | B z z z/ G/g/=f/e/d/ | %52
!p! e2 z z/ G/g/e/d/c/ | (c2 B) z/ G/g/=f/e/d/ |!<(! (d2 ^c) z/ _b/a/g/=f/e/ | %55
 (e2 d) z/ A/a/=f/e/d/ | (d2 ^c) z/ _b/a/g/=f/e/ | (e2 ^d) z/ =c'/=b/a/g/^f/ | %58
 (f2 e) z/ B/b/g/f/e/ | (b2 ^a) z/ g/f/e/d/^c/ | (e2 d) z/ d/f/d/^c/B/ | (B2 ^A) z/ g/f/e/d/^c/ | %62
 (e2 d) z/!<)!!f! b/^a/b/d'/b/ | g/b/f/b/e/b/ d/b/^a/b/d'/b/ | e/b/d/b/^c/b/ B/b/^a/b/d'/b/ | %65
 g/b/f/b/e/b/ d/b/^a/b/d'/b/ | e/b/d/b/^c/b/ B2 b | ^c2 g f2 e | e2 d B2 b | ^c2 g z f^A | %70
 !wedge!B!wedge!d!wedge!f !wedge!b!p! z z | !wedge!B!wedge!d!wedge!f !wedge!b z z | %72
 !wedge!B!wedge!d!wedge!g !wedge!b z z | !wedge!B!wedge!e!wedge!g !wedge!b z z | %74
 !wedge!c!wedge!e!wedge!g !wedge!c' z z | !wedge!c!wedge!e!wedge!a !wedge!c' z z | %76
 !wedge!c!wedge!^f!wedge!a !wedge!c' z z | !wedge!B!wedge!^d!wedge!f !fermata!b3 | %78
!p! z2 z z ([B,G][A,^D] | [G,E]) z z z ([GB][FA] | [EG]) z z z/ b/a/g/f/e/ | %81
 (e2 ^d) z/ c'/b/a/g/f/ | (f2 e) z/ b/a/g/f/e/ | c'/c/a/c'/g/c'/ f/a/d'/c'/b/a/ | %84
 b/B/g/b/f/b/ e/g/c'/b/a/g/ | a/A/f/a/e/a/ ^d/f/b/a/g/f/ | gMTab fff | gMTab fff | gMTab fff | %89
!<(! eee ^ddd | ^AAA!<)!!f! z/ B/^c/^d/e/f/ | g/B/^c/^d/e/f/ g/f/e/f/g/^a/ | bf^d BF^D | %93
 !fermata!B,6 |!p! z [GB][FA] [EG][Bg][Ge] | [F^d][fa][eg] [df][ac'][gb] | g b2- b a2- | %97
 age- e=fa | e3- ef^d | [Ge]2 z z2 !fermata!z | z [GB][FA] [EG][Bg][Ge] | %101
 [F^d][fa][eg] [df][ac'][gb] | g b2- b a2- | a g2 =f3 | e3 d3 | c3 B2 e |!<(! eee eee | %107
 e3- ef^d!<)! |!f! e/B/G/B/A/B/ G/B/e/B/f/B/ | e/B/G/B/A/B/ G/B/e/B/f/B/ | g3 =f3 | %111
 e/g/e/g/=f/g/ e/g/c'/g/d'/g/ | e'/g/e/g/=f/g/ e/g/c'/g/d'/g/ | e'aa d'^gg | c'=ff bee | %115
 a^dd g^AA | fBB =a=AA | g/B/G/B/A/B/ G/B/e/B/f/B/ | g/B/G/B/A/B/ G/B/e/B/f/B/ | %119
 g/B/G/B/G/B/ e/c/G/c/G/c/ | F/c/e/c/e/c/ F/B/^d/B/d/B/ | g/B/G/B/G/B/ e/c/G/c/G/c/ | %122
 F/c/e/c/e/c/ F/B/^d/B/d/B/ | e2 z z ([B,G][A,^D] | [G,E]) z z z ([GB][^DF] | %125
 [EG]) z z z ([gb][fa] | [eg])[ee'][ee'] [ee'] z z :| %127
V:2
 !wedge!E,,!wedge!G,,!wedge!B,, !wedge!E, z z | !wedge!E,,!wedge!G,,!wedge!B,, !wedge!E, z z | %2
 !wedge!E,,!wedge!G,,!wedge!B,, !wedge!E, z z | !wedge!C,!wedge!E,!wedge!G, C3- | C^D,F, B,3 | %5
 z (E,^A, !wedge!B,) z z | z (E,^A, !wedge!B,) z z | z (E,^A, B,) z !fermata!z | %8
 !wedge!E,,!wedge!G,,!wedge!B,, !wedge!E, z z | !wedge!E,,!wedge!G,,!wedge!B,, !wedge!E, z z | %10
 !wedge!E,,!wedge!G,,!wedge!B,, !wedge!E, z z | !wedge!E,,!wedge!A,,!wedge!C, !wedge!E, z z | %12
 !wedge!D,,!wedge!F,,!wedge!A,, !wedge!D, z z | [G,,,G,,][B,,,B,,][D,,D,] [G,,G,] z z | %14
 [A,,,A,,][C,,C,][D,,D,] [F,,F,] z z |[K:treble] z B,2- B,3 | z C2- C3 | z D2- D3 | CAG F z z | %19
 B,GF E z z | A,FE DEF | G,/G/A,/G/B,/G/ C/G/C/G/C/G/ | G,/G/A,/G/B,/G/ C/G/C/G/C/G/ | %23
 G,/G/A,/G/B,/G/ C/G/C/G/C/G/ | ^C/_B/C/B/C/B/ D/A/D/A/D/A/ | E/G/E/G/E/G/ F z z | %26
 z/ D/E/F/G/A/ B/A/G/A/B/^c/ | dAF[K:bass] DA,F, | D,2 z z2 !fermata!z | [G,,,G,,]2 z z2 [G,B,] | %30
 [A,C]2 z z[K:treble] [DF][FA] | [GB]2 B (cBA) | (GFG cBA) | B3 A3 | G z z z2 !fermata!z | %35
[K:bass] [G,,,G,,]2 z z2 [G,B,] | [A,C]2 z z[K:treble] [DF][FA] | [GB]2 B (cBA) | (GFG EF^D) | %39
 (EC^C =D)(^DE) | B3 A3 | [G,G]2 [DF] [G,G]2 [DF] | [G,G]2 [DF] [G,G]2 [DF] | %43
 [G,G]2 [DF] [G,G]2 [DF] | [G,G]2 z z2 z ::[K:bass] !wedge!E,,!wedge!^G,,!wedge!B,, !wedge!E, z z | %46
 !wedge!E,,!wedge!A,,!wedge!C, !wedge!E, z z | !wedge!E,,!wedge!^G,,!wedge!B,, !wedge!E, z z | %48
 !wedge!E,,!wedge!A,,!wedge!C, !wedge!E, z z | %49
 !wedge!E,,!wedge!^G,,!wedge!B,, !wedge!E, z !fermata!z | %50
 !wedge![C,,C,]!wedge![E,,E,]!wedge![G,,G,] [C,C]2 z | [D,,D,][=F,,=F,][G,,G,] [B,,B,]2 z | %52
 z E,2- E,3 | z =F,2- F,3 | z G,2- G,3 | z A,2- A,3 | z G,2- G,3 | z A,2- A,3 | z B,2- B,3 | %59
 z ^A,2- A,3 |[K:treble] z D2- D3 | z E2- E3 | z F2- F3 | ED^C B,2 z | GFE D2 z | ed^c B2 z | %66
 GFE D/F/D/F/D/F/ | E/G/E/G/E/G/ F/^A/F/A/F/A/ | G/B/G/B/G/B/ D/F/D/F/D/F/ | E/G/E/G/E/G/ F z z | %70
 B,2 z z[K:bass] ([DF][^CE] | [B,D]) z z z ([B,D][A,=C] | [G,B,]) z z z ([G,B,][F,A,] | %73
 [E,G,]) z z z ([E,G,][D,=F,] | [C,E,]) z z z ([C,E,][B,,D,] | [A,,C,]) z z z ([A,,C,][G,,B,,] | %76
 [^F,,A,,]) z z z ([F,,A,,][E,,G,,] | !fermata!x3-) !fermata!x3 | %78
 !wedge!E,,!wedge!G,,!wedge!B,, !wedge!E, z z | !wedge!E,,!wedge!G,,!wedge!B,, !wedge!E, z z | %80
 z G,2- G,3 | z A,2- A,3 | z B,2- B,3 | A,FE =D2 z | G,ED C2 z | F,^D^C B,2 z | %86
 E,/E/F,/E/G,/E/ A,/E/A,/E/A,/E/ | E,/E/F,/E/G,/E/ A,/E/A,/E/A,/E/ | %88
 E,/E/F,/E/G,/E/ A,/E/A,/E/A,/E/ |[K:treble] ^A,/^C/A,/C/A,/C/ B,/F/B,/F/B,/F/ | %90
 =C/E/C/E/C/E/ B,2 z | z/ B,/^C/^D/E/F/ G/F/E/F/G/^A/ | BF^D[K:bass] B,F,^D, | !fermata!B,,6 | %94
 E,,2 z z2 [E,G,] | [F,A,]2 z z[K:treble] [B,^D][DF] | [EG]2 G AFE | ^DE([GB] [Ac]3) | G3 F3 | %99
 E2 z z2 !fermata!z |[K:bass] E,,2 z z2 [E,G,] | [F,A,]2 z z[K:treble] [B,^D][DF] | [EG]2 G AFE | %103
 ^DEG ABA | ^GA=G FGF | EFE ^DE[K:bass] G, | (^G,A,^A, !wedge!B,)(C^C) |[K:treble] G3 F3 | %108
[K:bass] [E,E]2 [B,^D] [E,E]2 [B,D] | [E,E]2 [B,^D] [E,E]2 [B,D] | %110
[K:treble] E/B/G/B/G/B/ =D/B/G/B/D/B/ | C2 [GB] [Cc]2 [GB] | [Cc]2 [GB] [Cc]2 [GB] | %113
 c/e/c/e/c/e/ B/d/B/d/B/d/ | A/c/A/c/A/c/ G/B/G/B/G/B/ | ^F/A/F/A/F/A/ E/G/E/G/E/G/ | %116
 ^D/F/D/F/D/F/ D/F/D/F/D/F/ |[K:bass] [E,E]2 [B,^D] [E,E]2 [B,D] | [E,E]2 [B,^D] [E,E]2 [B,D] | %119
 [E,E]2 z [C,C]2 z | [A,,A,]2 z [B,,B,]2 z | [E,,E,]2 z [C,C]2 z | [A,,A,]2 z [B,,B,]2 z | %123
 !wedge!E,,!p!!wedge!G,,!wedge!B,, !wedge!E, z z | !wedge!E,,!wedge!G,,!wedge!B,, !wedge!E, z z | %125
 !wedge!E,,!wedge!G,,!wedge!B,, !wedge!E, z z | z6 :| %127
V:3
 x6 | x6 | x6 | x6 | x6 | x6 | x6 | x6 | x6 | x6 | x6 | x6 | x6 | x6 | x6 |[K:treble] G,3- G,3 | %16
 A,3- A,3 | B,3- B,3 | x6 | x6 | x6 | x6 | x6 | x6 | x6 | x6 | x6 | x3[K:bass] x3 | x6 | x6 | %30
 x4[K:treble] x2 | x6 | x6 | D6 | G x5 |[K:bass] x6 | x4[K:treble] x2 | x6 | x6 | x6 | =D6 | x6 | %42
 x6 | x6 | x6 ::[K:bass] x6 | x6 | x6 | x6 | x6 | x6 | x6 | C,3- C,3 | D,3- D,3 | E,3- E,3 | %55
 =F,3- F,3 | E,3- E,3 | ^F,3- F,3 | G,3- G,3 | F,3- F,3 |[K:treble] B,3- B,3 | ^C3- C3 | D3- D3 | %63
 x6 | x6 | x6 | x6 | x6 | x6 | x6 | x4[K:bass] x2 | x6 | x6 | x6 | x6 | x6 | x6 | [^D,,F,,]6 | x6 | %79
 x6 | E,3- E,3 | F,3- F,3 | G,3- G,3 | x6 | x6 | x6 | x6 | x6 | x6 |[K:treble] x6 | x6 | x6 | %92
 x3[K:bass] x3 | x6 | x6 | x4[K:treble] x2 | x6 | x6 | B,6 | E2 x4 |[K:bass] x6 | x4[K:treble] x2 | %102
 x6 | x6 | x6 | x5[K:bass] x | x6 |[K:treble] B,6 |[K:bass] x6 | x6 |[K:treble] x6 | x6 | x6 | x6 | %114
 x6 | x6 | x6 |[K:bass] x6 | x6 | x6 | x6 | x6 | x6 | x6 | x6 | x6 | x6 :| %127
V:4
 x6 | x6 | x6 | x6 | x6 | x6 | x6 | x6 | x6 | x6 | x6 | x6 | x6 | x6 | x6 |[K:treble] x2 D- [DG]3 | %16
 x2 D- [DF]3 | x2 F G3 | x6 | x6 | x6 | x6 | x6 | x6 | x6 | x6 | x6 | x3[K:bass] x3 | x6 | x6 | %30
 x4[K:treble] x2 | x6 | x6 | x6 | x6 |[K:bass] x6 | x4[K:treble] x2 | x6 | x6 | x6 | x6 | x6 | x6 | %43
 x6 | x6 ::[K:bass] x6 | x6 | x6 | x6 | x6 | x6 | x6 | x2 G,- [G,C]3 | x2 G,- [G,B,]3 | %54
 x2 _B,- [B,^C]3 | x2 ^C D3 | x2 _B,- [B,^C]3 | x2 =C- [C^D]3 | x2 ^D E3 | x2 ^C- [CE]3 | %60
[K:treble] x2 F- [FB]3 | x2 G- [G^A]3 | x2 ^A B3 | x6 | x6 | x6 | x6 | x6 | x6 | x6 | %70
 x4[K:bass] x2 | x6 | x6 | x6 | x6 | x6 | x6 | x6 | x6 | x6 | x2 B,- [B,E]3 | x2 C- [C^D]3 | %82
 x2 ^D E3 | x6 | x6 | x6 | x6 | x6 | x6 |[K:treble] x6 | x6 | x6 | x3[K:bass] x3 | x6 | x6 | %95
 x4[K:treble] x2 | x6 | x6 | x6 | x6 |[K:bass] x6 | x4[K:treble] x2 | x6 | x6 | x6 | x5[K:bass] x | %106
 x6 |[K:treble] x6 |[K:bass] x6 | x6 |[K:treble] x6 | x6 | x6 | x6 | x6 | x6 | x6 |[K:bass] x6 | %118
 x6 | x6 | x6 | x6 | x6 | x6 | x6 | x6 | x6 :| %127
V:5
 x6 | x6 | x6 | x6 | x6 | x6 | x6 | x6 | x6 | x6 | x6 | x6 | x6 | x6 | x6 | x6 | x6 | x6 | x6 | %19
 x6 | x6 | x6 | x6 | x6 | x6 | x6 | x6 | x6 | x6 | x6 | x6 | g2 d e^ga | (_e d2) =edc | d3 c3 | %34
 B x5 | x6 | x6 | g2 d (e^ga) | _e d2 c2 B- | BA_B =Bc^c | d3 =c3 | x6 | x6 | x6 | x6 :: x6 | x6 | %47
 x6 | x6 | x6 | x6 | x6 | x6 | x6 | x6 | x6 | x6 | x6 | x6 | x6 | x6 | x6 | x6 | x6 | x6 | x6 | %66
 x6 | x6 | x6 | x6 | x6 | x6 | x6 | x6 | x6 | x6 | x6 | x6 | x6 | x6 | x6 | x6 | x6 | x6 | x6 | %85
 x6 | x6 | x6 | x6 | x6 | x6 | x6 | x6 | x6 | x6 | x6 | e2 B c3 | B3 A3 | B3 A3 | x6 | x6 | x6 | %102
 e2 B c3 | B2 e- e d2- | d c2- c B2- | B A2- AGE | ^EFG !wedge!^G(A^A) | B3 =A3 | x6 | x6 | x6 | %111
 x6 | x6 | x6 | x6 | x6 | x6 | x6 | x6 | x6 | x6 | x6 | x6 | x6 | x6 | x6 | x6 :| %127

